X: 505
T: Lady Margaret Stewart's Reel
%R: reel
B: "Preston's Twenty Four Country Dances for the Year 1803", Tho. Preston, ed. p.213 #1
F: http://folkopedia.efdss.org/images/archive/0/02/20121211105513%21Preston_24_1803.PDF
F: http://folkopedia.efdss.org/wiki/File:Preston_24_1803.PDF
Z: 2014 John Chambers <jc:trillian.mit.edu>
N: The 2nd strain has initial repeat but no final repeat; not fixed.
M: C|
L: 1/8
K: Bm
% - - - - - - - - - - - - - - - - - - - - - - - - -
g |\
Tf2Bf dBfB | (f/^g/a) ef BGec |\
Tf2Bf dBfB | ecac B/B/B B :|
|: A |\
FBB>c dBcA | EA-A>B c>dec |\
FB-B>c dBdb | afec B/B/B BA |
FB-B>c dBcA | EA-A>B c>dec |\
dBdb cAce | dfec B/B/B B |]
% - - - - - - - - - - - - - - - - - - - - - - - - -
%%begintext align
%% Set & change sides, back again, lead
%% down the middle Poussette.
%%endtext

%%sep 1 1 500
%%sep 1 1 500
